public/tech/tiktok.svg

<?xml version="1.0" encoding="UTF-8"?>
<svg width="512px" height="150px" viewBox="0 0 512 150" version="1.1" xmlns="http://www.w3.org/2000/svg" xmlns:xlink="http://www.w3.org/1999/xlink" preserveAspectRatio="xMidYMid">
    <title>TikTok</title>
    <g>
				<path d="M97.844224,53.853184 C107.476992,60.735488 119.277568,64.784896 132.022784,64.784896 L132.022784,40.271872 C129.610752,40.272384 127.204864,40.020992 124.845056,39.52128 L124.845056,58.816512 C112.100864,58.816512 100.301824,54.767104 90.666496,47.885312 L90.666496,97.909248 C90.666496,122.93376 70.369792,143.218688 45.334016,143.218688 C35.992576,143.218688 27.31008,140.396032 20.097536,135.555072 C28.329472,143.967744 39.809536,149.18656 52.510208,149.18656 C77.54752,149.18656 97.845248,128.901632 97.845248,103.876096 L97.845248,53.853184 L97.844224,53.853184 Z M106.698752,29.12256 C101.775872,23.747072 98.543616,16.800256 97.844224,9.120256 L97.844224,5.96736 L91.042304,5.96736 C92.754432,15.72864 98.594304,24.068096 106.698752,29.12256 L106.698752,29.12256 Z M35.932672,116.352 C33.182208,112.74752 31.695872,108.338176 31.702528,103.804416 C31.702528,92.359168 40.986112,83.079168 52.439552,83.079168 C54.57408,83.078656 56.695808,83.405312 58.729984,84.050432 L58.729984,58.989568 C56.352768,58.663936 53.953536,58.525696 51.555328,58.576384 L51.555328,78.08256 C49.519616,77.43744 47.396864,77.10976 45.261824,77.111808 C33.808384,77.111808 24.525312,86.390784 24.525312,97.837568 C24.525312,105.931264 29.165568,112.938496 35.932672,116.352 Z" fill="#FF004F"></path>
				<path d="M90.666496,47.8848 C100.301824,54.766592 112.100864,58.816 124.845056,58.816 L124.845056,39.520768 C117.731328,38.006272 111.433728,34.290688 106.698752,29.12256 C98.593792,24.067584 92.754432,15.728128 91.042304,5.96736 L73.175552,5.96736 L73.175552,103.875072 C73.135104,115.289088 63.867392,124.5312 52.438528,124.5312 C45.70368,124.5312 39.720448,121.322496 35.931136,116.352 C29.164544,112.938496 24.524288,105.930752 24.524288,97.83808 C24.524288,86.39232 33.80736,77.11232 45.2608,77.11232 C47.455232,77.11232 49.570304,77.453824 51.554304,78.083072 L51.554304,58.576896 C26.958336,59.0848 7.177216,79.171584 7.177216,103.875584 C7.177216,116.207616 12.103168,127.387136 20.098048,135.555584 C27.310592,140.396032 35.993088,143.2192 45.334528,143.2192 C70.370816,143.2192 90.667008,122.933248 90.667008,97.909248 L90.667008,47.8848 L90.666496,47.8848 Z" fill="#000000"></path>
				<path d="M124.845056,39.520768 L124.845056,34.303488 C118.430208,34.313216 112.141312,32.517632 106.698752,29.122048 C111.516672,34.394112 117.860864,38.029312 124.845056,39.520768 Z M91.042304,5.96736 C90.878976,5.034496 90.753536,4.095488 90.666496,3.152896 L90.666496,0 L65.997312,0 L65.997312,97.908736 C65.957888,109.321216 56.690688,118.563328 45.2608,118.563328 C41.905152,118.563328 38.736896,117.767168 35.931136,116.352512 C39.720448,121.322496 45.70368,124.530688 52.438528,124.530688 C63.866368,124.530688 73.135616,115.2896 73.175552,103.875584 L73.175552,5.96736 L91.042304,5.96736 Z M51.555328,58.576896 L51.555328,53.02272 C49.494016,52.74112 47.415808,52.599808 45.33504,52.6008265 C20.296704,52.6008265 0,72.886272 0,97.908736 C0,113.596416 7.97696,127.421952 20.09856,135.55456 C12.10368,127.386624 7.177728,116.206592 7.177728,103.875072 C7.177728,79.171584 26.958336,59.0848 51.555328,58.576896 Z" fill="#00F2EA"></path>
				<path d="M410.688512,122.705408 C428.60288,122.705408 443.12576,108.299776 443.12576,90.531328 C443.12576,72.763392 428.60288,58.3552 410.688512,58.3552 L405.801472,58.3552 C423.716352,58.3552 438.239232,72.76288 438.239232,90.531328 C438.239232,108.299776 423.716352,122.705408 405.801472,122.705408 L410.688512,122.705408 Z" fill="#FF004F"></path>
				<path d="M405.358592,58.3552 L400.472064,58.3552 C382.558208,58.3552 368.032768,72.76288 368.032768,90.531328 C368.032768,108.299776 382.558208,122.705408 400.472064,122.705408 L405.358592,122.705408 C387.442176,122.705408 372.919296,108.299776 372.919296,90.531328 C372.918784,72.763392 387.442176,58.3552 405.358592,58.3552 Z" fill="#00F2EA"></path>
				<path d="M266.725376,43.812864 L266.725376,80.390656 L285.38368,61.88032 L308.043776,61.88032 L284.493312,84.801536 L310.711296,122.704896 L290.717696,122.704896 L272.502272,96.69888 L266.725376,101.992448 L266.725376,122.264576 L248.061952,122.264576 L248.061952,43.812864 L266.725376,43.812864 Z M468.00896,43.812864 L468.00896,80.390656 L486.672384,61.88032 L509.331456,61.88032 L485.782016,84.801536 L512,122.704896 L492.00384,122.704896 L473.783296,96.69888 L468.00896,101.992448 L468.00896,122.264576 L449.342976,122.264576 L449.342976,43.812864 L468.00896,43.812864 Z M405.799936,58.3552 C423.713792,58.3552 438.239232,72.763392 438.239232,90.531328 C438.239232,108.299776 423.713792,122.705408 405.799936,122.705408 L405.799936,122.705408 L405.357056,122.705408 C387.442176,122.705408 372.919296,108.299776 372.919296,90.531328 C372.919296,72.76288 387.442176,58.3552 405.357056,58.3552 L405.357056,58.3552 Z M217.84832,43.812864 L212.516352,60.56192 L196.965888,60.56192 L196.965888,122.265088 L177.854976,122.265088 L177.854976,60.1216 L158.751744,60.1216 L158.751744,43.812864 L217.84832,43.812864 Z M374.25408,43.812864 L368.922624,60.56192 L353.372672,60.56192 L353.372672,122.265088 L334.26176,122.265088 L334.26176,60.1216 L315.158528,60.1216 L315.158528,43.812864 L374.25408,43.812864 Z M240.062464,68.936192 L240.062464,122.265088 L221.406208,122.265088 L221.406208,68.936192 L240.062464,68.936192 Z M405.582336,74.887168 C396.869632,74.887168 389.804032,81.888256 389.804032,90.531328 C389.804032,99.1744 396.869632,106.178048 405.582336,106.179584 C414.288896,106.179584 421.353984,99.1744 421.353984,90.531328 C421.353984,81.888256 414.288896,74.887168 405.582336,74.887168 Z M230.729728,43.812864 C235.887104,43.812864 240.062464,47.957504 240.062464,53.067776 C240.062464,58.17856 235.889664,62.3232 230.729728,62.3232 C225.57696,62.32064 221.406208,58.17856 221.406208,53.067776 C221.406208,47.957504 225.57696,43.812864 230.729728,43.812864 Z" fill="#000000"></path>
    </g>
</svg>

<svg xmlns="http://www.w3.org/2000/svg" width="512" height="150" preserveAspectRatio="xMidYMid" viewBox="0 0 512 150"><title>TikTok</title><path fill="#ff004f" d="M97.844 53.853c9.633 6.882 21.434 10.932 34.179 10.932V40.272a34.7 34.7 0 0 1-7.178-.75v19.295c-12.744 0-24.543-4.05-34.179-10.932V97.91c0 25.025-20.296 45.31-45.332 45.31-9.341 0-18.024-2.823-25.236-7.664 8.231 8.413 19.712 13.632 32.412 13.632 25.038 0 45.335-20.285 45.335-45.31V53.852m8.855-24.73A34.16 34.16 0 0 1 97.844 9.12V5.967h-6.802c1.712 9.762 7.552 18.101 15.657 23.156m-70.766 87.229a20.63 20.63 0 0 1-4.23-12.548c0-11.445 9.283-20.725 20.737-20.725 2.134 0 4.256.326 6.29.971V58.99a46 46 0 0 0-7.175-.414v19.507a20.8 20.8 0 0 0-6.293-.971c-11.454 0-20.737 9.279-20.737 20.726 0 8.093 4.64 15.1 11.408 18.514"/><path d="M90.666 47.885c9.636 6.882 21.435 10.931 34.18 10.931V39.521a34.3 34.3 0 0 1-18.147-10.398c-8.105-5.055-13.945-13.395-15.657-23.156H73.176v97.908c-.04 11.414-9.309 20.656-20.737 20.656-6.735 0-12.719-3.209-16.508-8.179-6.766-3.414-11.407-10.421-11.407-18.514 0-11.446 9.283-20.726 20.737-20.726 2.194 0 4.31.342 6.293.971V58.577c-24.596.508-44.377 20.595-44.377 45.299 0 12.332 4.926 23.511 12.921 31.68a45.14 45.14 0 0 0 25.237 7.663c25.036 0 45.332-20.286 45.332-45.31V47.885"/><path fill="#00f2ea" d="M124.845 39.52v-5.217a34.2 34.2 0 0 1-18.146-5.181 34.28 34.28 0 0 0 18.146 10.399M91.042 5.968a35 35 0 0 1-.376-2.814V0H65.997v97.909c-.04 11.412-9.306 20.654-20.736 20.654a20.66 20.66 0 0 1-9.33-2.21c3.79 4.97 9.773 8.178 16.508 8.178 11.427 0 20.697-9.241 20.737-20.655V5.967zm-39.487 52.61v-5.554a46 46 0 0 0-6.22-.422C20.297 52.6 0 72.886 0 97.909c0 15.687 7.977 29.513 20.099 37.646-7.995-8.168-12.921-19.348-12.921-31.68 0-24.703 19.78-44.79 44.377-45.298"/><path fill="#ff004f" d="M410.689 122.705c17.914 0 32.437-14.405 32.437-32.174s-14.523-32.176-32.437-32.176H405.8c17.915 0 32.438 14.408 32.438 32.176s-14.523 32.174-32.438 32.174z"/><path fill="#00f2ea" d="M405.359 58.355h-4.887c-17.914 0-32.44 14.408-32.44 32.176s14.526 32.174 32.44 32.174h4.887c-17.917 0-32.44-14.405-32.44-32.174s14.523-32.176 32.44-32.176"/><path d="M266.725 43.813V80.39l18.659-18.51h22.66l-23.55 22.92 26.217 37.904h-19.993l-18.216-26.006-5.777 5.293v20.273h-18.663V43.813zm201.284 0V80.39l18.663-18.51h22.66l-23.55 22.92L512 122.706h-19.996L473.784 96.7l-5.775 5.293v20.273h-18.666V43.813zm-62.21 14.542c17.915 0 32.44 14.408 32.44 32.176s-14.525 32.174-32.44 32.174h-.442c-17.915 0-32.438-14.405-32.438-32.174s14.523-32.176 32.438-32.176ZM217.85 43.813l-5.333 16.749h-15.55v61.703h-19.111V60.122h-19.103v-16.31zm156.405 0-5.331 16.749h-15.55v61.703h-19.111V60.122H315.16v-16.31zM240.062 68.936v53.33h-18.656v-53.33zm165.52 5.951c-8.712 0-15.778 7.001-15.778 15.644s7.066 15.647 15.778 15.649c8.707 0 15.772-7.006 15.772-15.649s-7.065-15.644-15.772-15.644M230.73 43.813c5.157 0 9.332 4.145 9.332 9.255s-4.172 9.255-9.332 9.255c-5.153-.002-9.324-4.144-9.324-9.255 0-5.11 4.171-9.255 9.324-9.255"/></svg>
